www/assets/icons/person_remove.svg

<svg xmlns="http://www.w3.org/2000/svg" width="24" height="24" viewBox="0 0 24 24" fill='currentColor'><path d="M13.5 8c0-2.21-1.79-4-4-4s-4 1.79-4 4 1.79 4 4 4 4-1.79 4-4m3 2v2h6v-2zm-15 8v2h16v-2c0-2.66-5.33-4-8-4s-8 1.34-8 4"/></svg>

<svg width="24" height="24" viewBox="0 0 24 24" xmlns="http://www.w3.org/2000/svg" fill='currentColor'><path d="M13.5 8C13.5 5.79 11.71 4 9.5 4C7.29 4 5.5 5.79 5.5 8C5.5 10.21 7.29 12 9.5 12C11.71 12 13.5 10.21 13.5 8ZM16.5 10V12H22.5V10H16.5ZM1.5 18V20H17.5V18C17.5 15.34 12.17 14 9.5 14C6.83 14 1.5 15.34 1.5 18Z"/></svg>
